media/img/firefox/products/relay-MR2.svg

<svg width="335" height="223" fill="none" xmlns="http://www.w3.org/2000/svg"><g clip-path="url(#a)"><path d="M315.7 1.3H18.4c-1.4 0-2.6 1.2-2.6 2.6v228.7c0 1.4 1.2 2.6 2.6 2.6h297.3c1.4 0 2.6-1.2 2.6-2.6V3.9c0-1.4-1.2-2.6-2.6-2.6Z" fill="#fff" stroke="#F0F0F4" stroke-width="2.602"/><path d="M14.5 19.5h305.1V41H14.5V19.5Z" fill="#F0F0F4"/><path d="M265.6 25.4H68.5c-.7 0-1.3.6-1.3 1.3v7.2c0 .7.6 1.3 1.3 1.3h197.1c.7 0 1.3-.6 1.3-1.3v-7.2c0-.7-.6-1.3-1.3-1.3Z" fill="#fff"/><path d="M17.1 0H317c.7 0 1.4.308 1.8.82.5.513.8 1.129.8 1.847V20H14.5V2.667c0-.718.3-1.436.8-1.846C15.8.308 16.4 0 17.1 0Z" fill="#CFCFD8"/><path d="M40.5 7.3a4 4 0 0 1 4-4h51.8a4 4 0 0 1 4 4v6a4 4 0 0 1-4 4H44.5a4 4 0 0 1-4-4v-6Z" fill="#F0F0F4"/><path d="M36.5 57h261c1.7 0 3 1.3 3 3v24c0 1.7-1.3 3-3 3h-261c-1.7 0-3-1.3-3-3V60c0-1.7 1.3-3 3-3ZM36.5 97h261c1.7 0 3 1.3 3 3v24c0 1.7-1.3 3-3 3h-261c-1.7 0-3-1.3-3-3v-24c0-1.7 1.3-3 3-3Z" stroke="#F0F0F4" stroke-width="2"/><path d="M36.5 137h261c1.7 0 3 1.3 3 3v24c0 1.7-1.3 3-3 3h-261c-1.7 0-3-1.3-3-3v-24c0-1.7 1.3-3 3-3Z" fill="#F0F0F4" stroke="#F0F0F4" stroke-width="2"/><path d="M36.5 177h261c1.7 0 3 1.3 3 3v24c0 1.7-1.3 3-3 3h-261c-1.7 0-3-1.3-3-3v-24c0-1.7 1.3-3 3-3Z" stroke="#F0F0F4" stroke-width="2"/><path d="M48.5 66h9c3.3 0 6 2.7 6 6s-2.7 6-6 6h-9c-3.3 0-6-2.7-6-6s2.7-6 6-6ZM48.5 106h9c3.3 0 6 2.7 6 6s-2.7 6-6 6h-9c-3.3 0-6-2.7-6-6s2.7-6 6-6Z" fill="#F0F0F4"/><path d="M48.5 146h9c3.3 0 6 2.7 6 6s-2.7 6-6 6h-9c-3.3 0-6-2.7-6-6s2.7-6 6-6Z" fill="#fff"/><path d="M48.5 186h9c3.3 0 6 2.7 6 6s-2.7 6-6 6h-9c-3.3 0-6-2.7-6-6s2.7-6 6-6Z" fill="#F0F0F4"/><path d="M48.5 76a4 4 0 1 0 0-8 4 4 0 0 0 0 8ZM48.5 116a4 4 0 1 0 0-8 4 4 0 0 0 0 8ZM48.5 196a4 4 0 1 0 0-8 4 4 0 0 0 0 8Z" fill="#999"/><path d="M57.5 156a4 4 0 1 0 0-8 4 4 0 0 0 0 8Z" fill="#C4C4C4"/><path d="m254.2 80.7-9.9-17.9c-.6-1.1-2.2-1.1-2.7 0l-9.9 17.9c-.6 1 .2 2.2 1.4 2.2h19.7c1.2.1 1.9-1.2 1.4-2.2Z" fill="#FF4F5E"/><path d="M242.9 79.9c-.9 0-1.6-.7-1.6-1.5s.7-1.5 1.6-1.5c.9 0 1.6.7 1.6 1.5s-.7 1.5-1.6 1.5Zm1.6-4.5h-3.1v-6h3.1v6Z" fill="#fff"/><path d="m86.9 71.4-2.6 2.4-2.5-2.3-.3.3-6.7 6.7c.3.3.6.4 1 .4h16.9c.4 0 .7-.2 1-.4l-6.6-6.8-.2-.3Z" fill="#0266A8"/><path d="m82.1 71.8-7.2-6.4c-.3.3-.4.6-.4.9v11.3c0 .4.2.7.4 1l6.8-6.6.4-.2ZM94.1 66c-.1-.2-.2-.4-.4-.6l-7.1 6.3.3.3 6.8 6.6c.3-.3.4-.6.4-1V66.4c.1-.2.1-.3 0-.4Z" fill="#0390ED"/><path d="m81.9 71.8 2.5 2.3 2.6-2.4 6.9-6.3c-.3-.2-.6-.4-.9-.4H76c-.4 0-.7.2-1 .4l6.9 6.4Z" fill="#62BEFB"/><path d="m86.9 111.4-2.6 2.4-2.5-2.3-.3.3-6.7 6.7c.3.3.6.4 1 .4h16.9c.4 0 .7-.2 1-.4l-6.6-6.8-.2-.3Z" fill="#0266A8"/><path d="m82.1 111.8-7.2-6.4c-.3.3-.4.6-.4.9v11.3c0 .4.2.7.4 1l6.8-6.6.4-.2ZM94.1 106c-.1-.2-.2-.4-.4-.6l-7.1 6.3.3.3 6.8 6.6c.3-.3.4-.6.4-1v-11.3c.1-.1.1-.2 0-.3Z" fill="#0390ED"/><path d="m81.9 111.8 2.5 2.3 2.6-2.4 6.9-6.3c-.3-.2-.6-.4-.9-.4H76c-.4 0-.7.2-1 .4l6.9 6.4Z" fill="#62BEFB"/><path d="m86.9 191.4-2.6 2.4-2.5-2.3-.3.3-6.7 6.7c.3.3.6.4 1 .4h16.9c.4 0 .7-.2 1-.4l-6.6-6.8-.2-.3Z" fill="#0266A8"/><path d="m82.1 191.8-7.2-6.4c-.3.3-.4.6-.4.9v11.3c0 .4.2.7.4 1l6.8-6.6.4-.2ZM94.1 186c-.1-.2-.2-.4-.4-.6l-7.1 6.3.3.3 6.8 6.6c.3-.3.4-.6.4-1v-11.3c.1-.1.1-.2 0-.3Z" fill="#0390ED"/><path d="m81.9 191.8 2.5 2.3 2.6-2.4 6.9-6.3c-.3-.2-.6-.4-.9-.4H76c-.4 0-.7.2-1 .4l6.9 6.4Z" fill="#62BEFB"/><path d="m87.3 151.4-2.7 2.5-2.6-2.3-.3.3-6.9 6.8c.3.3.6.4 1 .4h17.5c.4 0 .8-.2 1-.4l-6.8-6.9-.2-.4Z" fill="#FF651D"/><path d="m82.1 151.8-7.2-6.3c-.3.3-.4.6-.4.9v11.3c0 .4.2.7.4 1l6.9-6.5.3-.4ZM94.4 145.4l-7.2 6.5.3.3 6.9 6.8c.3-.3.4-.6.4-1v-11.6c0-.1 0-.3-.1-.4 0-.2-.1-.4-.3-.6Z" fill="#FF9200"/><path d="m82.2 152 2.6 2.3 2.7-2.4 7.1-6.5c-.3-.2-.6-.4-1-.4H76c-.4 0-.8.2-1 .4l7.2 6.6Z" fill="#FBB85E"/></g><defs><clipPath id="a"><path fill="#fff" d="M0 0h335v223H0z"/></clipPath></defs></svg>

<svg width="335" height="223" viewBox="0 0 335 223" fill="none" xmlns="http://www.w3.org/2000/svg">
<g clip-path="url(#clip0_951:14940)">
<path d="M315.7 1.3H18.4C17 1.3 15.8 2.5 15.8 3.9V232.6C15.8 234 17 235.2 18.4 235.2H315.7C317.1 235.2 318.3 234 318.3 232.6V3.9C318.3 2.5 317.1 1.3 315.7 1.3V1.3Z" fill="white" stroke="#F0F0F4" stroke-width="2.602"/>
<path d="M14.5 19.5H319.6V41H14.5V19.5Z" fill="#F0F0F4"/>
<path d="M265.6 25.4H68.5C67.8 25.4 67.2 26 67.2 26.7V33.9C67.2 34.6 67.8 35.2 68.5 35.2H265.6C266.3 35.2 266.9 34.6 266.9 33.9V26.7C266.9 26 266.3 25.4 265.6 25.4Z" fill="white"/>
<path d="M17.1 0H317C317.7 0 318.4 0.307692 318.8 0.820513C319.3 1.33333 319.6 1.94872 319.6 2.66667V20H14.5V2.66667C14.5 1.94872 14.8 1.23077 15.3 0.820513C15.8 0.307692 16.4 0 17.1 0Z" fill="#CFCFD8"/>
<path d="M40.5 7.3C40.5 5.09086 42.2909 3.3 44.5 3.3H96.3C98.5091 3.3 100.3 5.09086 100.3 7.3V13.3C100.3 15.5091 98.5091 17.3 96.3 17.3H44.5C42.2909 17.3 40.5 15.5091 40.5 13.3V7.3Z" fill="#F0F0F4"/>
<path d="M36.5 57H297.5C299.2 57 300.5 58.3 300.5 60V84C300.5 85.7 299.2 87 297.5 87H36.5C34.8 87 33.5 85.7 33.5 84V60C33.5 58.3 34.8 57 36.5 57Z" stroke="#F0F0F4" stroke-width="2"/>
<path d="M36.5 97H297.5C299.2 97 300.5 98.3 300.5 100V124C300.5 125.7 299.2 127 297.5 127H36.5C34.8 127 33.5 125.7 33.5 124V100C33.5 98.3 34.8 97 36.5 97Z" stroke="#F0F0F4" stroke-width="2"/>
<path d="M36.5 137H297.5C299.2 137 300.5 138.3 300.5 140V164C300.5 165.7 299.2 167 297.5 167H36.5C34.8 167 33.5 165.7 33.5 164V140C33.5 138.3 34.8 137 36.5 137Z" fill="#F0F0F4" stroke="#F0F0F4" stroke-width="2"/>
<path d="M36.5 177H297.5C299.2 177 300.5 178.3 300.5 180V204C300.5 205.7 299.2 207 297.5 207H36.5C34.8 207 33.5 205.7 33.5 204V180C33.5 178.3 34.8 177 36.5 177Z" stroke="#F0F0F4" stroke-width="2"/>
<path d="M48.5 66H57.5C60.8 66 63.5 68.7 63.5 72C63.5 75.3 60.8 78 57.5 78H48.5C45.2 78 42.5 75.3 42.5 72C42.5 68.7 45.2 66 48.5 66Z" fill="#F0F0F4"/>
<path d="M48.5 106H57.5C60.8 106 63.5 108.7 63.5 112C63.5 115.3 60.8 118 57.5 118H48.5C45.2 118 42.5 115.3 42.5 112C42.5 108.7 45.2 106 48.5 106Z" fill="#F0F0F4"/>
<path d="M48.5 146H57.5C60.8 146 63.5 148.7 63.5 152C63.5 155.3 60.8 158 57.5 158H48.5C45.2 158 42.5 155.3 42.5 152C42.5 148.7 45.2 146 48.5 146Z" fill="white"/>
<path d="M48.5 186H57.5C60.8 186 63.5 188.7 63.5 192C63.5 195.3 60.8 198 57.5 198H48.5C45.2 198 42.5 195.3 42.5 192C42.5 188.7 45.2 186 48.5 186Z" fill="#F0F0F4"/>
<path d="M48.5 76C50.7091 76 52.5 74.2091 52.5 72C52.5 69.7909 50.7091 68 48.5 68C46.2909 68 44.5 69.7909 44.5 72C44.5 74.2091 46.2909 76 48.5 76Z" fill="#999999"/>
<path d="M48.5 116C50.7091 116 52.5 114.209 52.5 112C52.5 109.791 50.7091 108 48.5 108C46.2909 108 44.5 109.791 44.5 112C44.5 114.209 46.2909 116 48.5 116Z" fill="#999999"/>
<path d="M48.5 196C50.7091 196 52.5 194.209 52.5 192C52.5 189.791 50.7091 188 48.5 188C46.2909 188 44.5 189.791 44.5 192C44.5 194.209 46.2909 196 48.5 196Z" fill="#999999"/>
<path d="M57.5 156C59.7091 156 61.5 154.209 61.5 152C61.5 149.791 59.7091 148 57.5 148C55.2909 148 53.5 149.791 53.5 152C53.5 154.209 55.2909 156 57.5 156Z" fill="#C4C4C4"/>
<path d="M254.2 80.7L244.3 62.8C243.7 61.7 242.1 61.7 241.6 62.8L231.7 80.7C231.1 81.7 231.9 82.9 233.1 82.9H252.8C254 83 254.7 81.7 254.2 80.7Z" fill="#FF4F5E"/>
<path d="M242.9 79.9C242 79.9 241.3 79.2 241.3 78.4C241.3 77.6 242 76.9 242.9 76.9C243.8 76.9 244.5 77.6 244.5 78.4C244.5 79.2 243.8 79.9 242.9 79.9ZM244.5 75.4H241.4V69.4H244.5V75.4Z" fill="white"/>
<path d="M86.9 71.4L84.3 73.8L81.8 71.5L81.5 71.8L74.8 78.5C75.1 78.8 75.4 78.9 75.8 78.9H92.7C93.1 78.9 93.4 78.7 93.7 78.5L87.1 71.7L86.9 71.4V71.4Z" fill="#0266A8"/>
<path d="M82.1 71.8L74.9 65.4C74.6 65.7 74.5 66 74.5 66.3V77.6C74.5 78 74.7 78.3 74.9 78.6L81.7 72L82.1 71.8Z" fill="#0390ED"/>
<path d="M94.1001 66C94.0001 65.8 93.9001 65.6 93.7001 65.4L86.6001 71.7L86.9001 72L93.7001 78.6C94.0001 78.3 94.1001 78 94.1001 77.6V66.4C94.2001 66.2 94.2001 66.1 94.1001 66Z" fill="#0390ED"/>
<path d="M81.9 71.8L84.4 74.1L87 71.7L93.9 65.4C93.6 65.2 93.3 65 93 65H76C75.6 65 75.3 65.2 75 65.4L81.9 71.8Z" fill="#62BEFB"/>
<path d="M86.9 111.4L84.3 113.8L81.8 111.5L81.5 111.8L74.8 118.5C75.1 118.8 75.4 118.9 75.8 118.9H92.7C93.1 118.9 93.4 118.7 93.7 118.5L87.1 111.7L86.9 111.4V111.4Z" fill="#0266A8"/>
<path d="M82.1 111.8L74.9 105.4C74.6 105.7 74.5 106 74.5 106.3V117.6C74.5 118 74.7 118.3 74.9 118.6L81.7 112L82.1 111.8Z" fill="#0390ED"/>
<path d="M94.1001 106C94.0001 105.8 93.9001 105.6 93.7001 105.4L86.6001 111.7L86.9001 112L93.7001 118.6C94.0001 118.3 94.1001 118 94.1001 117.6V106.3C94.2001 106.2 94.2001 106.1 94.1001 106Z" fill="#0390ED"/>
<path d="M81.9 111.8L84.4 114.1L87 111.7L93.9 105.4C93.6 105.2 93.3 105 93 105H76C75.6 105 75.3 105.2 75 105.4L81.9 111.8Z" fill="#62BEFB"/>
<path d="M86.9 191.4L84.3 193.8L81.8 191.5L81.5 191.8L74.8 198.5C75.1 198.8 75.4 198.9 75.8 198.9H92.7C93.1 198.9 93.4 198.7 93.7 198.5L87.1 191.7L86.9 191.4V191.4Z" fill="#0266A8"/>
<path d="M82.1 191.8L74.9 185.4C74.6 185.7 74.5 186 74.5 186.3V197.6C74.5 198 74.7 198.3 74.9 198.6L81.7 192L82.1 191.8V191.8Z" fill="#0390ED"/>
<path d="M94.1001 186C94.0001 185.8 93.9001 185.6 93.7001 185.4L86.6001 191.7L86.9001 192L93.7001 198.6C94.0001 198.3 94.1001 198 94.1001 197.6V186.3C94.2001 186.2 94.2001 186.1 94.1001 186Z" fill="#0390ED"/>
<path d="M81.9 191.8L84.4 194.1L87 191.7L93.9 185.4C93.6 185.2 93.3 185 93 185H76C75.6 185 75.3 185.2 75 185.4L81.9 191.8Z" fill="#62BEFB"/>
<path d="M87.3 151.4L84.6 153.9L82 151.6L81.7 151.9L74.8 158.7C75.1 159 75.4 159.1 75.8 159.1H93.3C93.7 159.1 94.1 158.9 94.3 158.7L87.5 151.8L87.3 151.4Z" fill="#FF651D"/>
<path d="M82.1 151.8L74.9 145.5C74.6 145.8 74.5 146.1 74.5 146.4V157.7C74.5 158.1 74.7 158.4 74.9 158.7L81.8 152.2L82.1 151.8Z" fill="#FF9200"/>
<path d="M94.4 145.4L87.2 151.9L87.5 152.2L94.4 159C94.7 158.7 94.8 158.4 94.8 158V146.4C94.8 146.3 94.8 146.1 94.7 146C94.7 145.8 94.6 145.6 94.4 145.4V145.4Z" fill="#FF9200"/>
<path d="M82.2 152L84.8 154.3L87.5 151.9L94.6 145.4C94.3 145.2 94 145 93.6 145H76C75.6 145 75.2 145.2 75 145.4L82.2 152Z" fill="#FBB85E"/>
</g>
<defs>
<clipPath id="clip0_951:14940">
<rect width="335" height="223" fill="white"/>
</clipPath>
</defs>
</svg>
